X:13
T:Felix Falls in Love
C: Sarah Gowan
M:3/4
K:G
|:"G"B3AG2|B2A2G2|"D"A3GAB|A4GA|
"G"B3AG2|"C"E4D2|1"Em"E3DEF|E4GA:|2 "Em"(E6|E4)B2||
"G"d2B2B2|d2B2d2|"Em"e3fed|B4GA|"G"B2A2G2|
G2E2G2|"A"A6|"Bb"_B6|"G"Bz2BB2|B2A2G2|
"D"A3GAB|A4GA|"Em"B2A2G2|"C"E4D2|"Em"E6|]
